X: 1
T: Mac Cabe
M: 4/4
L: 1/8
R: reel
K: Dmaj
f2df edBd|f2ed fgag|f2df eBdB|ABdf edBd|
f2df edBd|f2ed fa~a2|bf~f2 afdB|ABdf efdB||
AFdF E3F|DEFD E3B|A2FB AFAB|defd efdB|
AFdF E3F|DEFD E3B|A2FB AFAB|defe d3e||
